X:514
T:BEWARRP1- Tak Tent to the Rippells Gudeman
O:england
S:Atkinson MS, 1694
Q:1/4=120
L:1/4
M:3/4
K:F
F|DFF|Adc|Ac/A/ G/F/|G2F|DFF|d/e/ f/e/ d/c/|AFF|F2||\
f|dfe|dgf|dcA|GAc|d3/2c/d|fcd|AFF|F2|]


